X:651
T:Holtrilen
N:"The Reel From Holt"
O:Norway
R:Reel 
M:4/4
D:\AA{}non Egeland \& Per Midstigen - I heitaste sl\aa{}tten (Heilo HCD7071)
N:2nd bar of 2nd part, BABd sometimes BGBd
%%ID:00000c99
Z:Richard Robinson 
F: http://www.leeds.ac.uk/music/Info/RRTuneBk/gettune/00000c99.abc
K:D
D2FA d2dd | efed cBA2 | B2AG F2FG | ECEG FDDD|
FDFA d2dd | efed cBA2 | fdff gece |1 d2f2 d2z2 :|2 d2f2 d2 |:
fe|\
d2de c2cd | BABd cBA2 | B2AG F2FG | ECEG FD D2|
FDFA d2dd | efed cBA2 | fdff gece |1 d2f2 d2 :|2 d2f2 d4|]
